src/main/resources/icons/KubernetesIcons/icons/customResource.svg

<svg width="16" height="16" viewBox="0 0 16 16" fill="none" xmlns="http://www.w3.org/2000/svg">
<path fill-rule="evenodd" clip-rule="evenodd" d="M15 9L15 5L11 5L11 4.23244C11.5978 3.88663 12 3.24028 12 2.5C12 1.39543 11.1046 0.5 10 0.5C8.89543 0.5 8 1.39543 8 2.5C8 3.24028 8.4022 3.88663 9 4.23244L9 5L5 5L5 9L4.23244 9C3.88663 8.4022 3.24028 8 2.5 8C1.39543 8 0.5 8.89543 0.5 10C0.5 11.1046 1.39543 12 2.5 12C3.24028 12 3.88662 11.5978 4.23243 11L5 11L5 15L15 15L15 11L14.2324 11C13.8866 11.5978 13.2403 12 12.5 12C11.3954 12 10.5 11.1046 10.5 10C10.5 8.89543 11.3954 8 12.5 8C13.2403 8 13.8866 8.4022 14.2324 9L15 9Z" fill="#40B6E0" fill-opacity="0.6"/>
</svg>

<svg width="16" height="16" viewBox="0 0 16 16" fill="none" xmlns="http://www.w3.org/2000/svg"><rect id="frame" width="16" height="16" fill="none"/><path fill-rule="evenodd" clip-rule="evenodd" d="M15 9V5h-4v-.768a2 2 0 1 0-2 0V5H5v4h-.768a2 2 0 1 0 0 2H5v4h10v-4h-.768a2 2 0 0 1-3.732-1 2 2 0 0 1 3.732-1H15z" fill="#40B6E0" fill-opacity=".6"/></svg>
